X:1
T:Title
%%score ( 1 2 ) { 3 | 4 }
L:1/8
Q:1/4=110
M:4/4
K:A
V:1 treble nm="Grand Piano, Soprano"
V:2 treble 
V:3 bass nm="Choir Pad, Bless�d Are They That Do"
V:4 bass 
V:1
 [Ec]2 [DB]2 [CA]2 [CE]2 | [Ec][Ec] [DB]2 [CA]2 [CE]2 | [EG]2 [EA]2 [EB]2 E2 | %3
w: By~Philip~B.~Bliss * * *|||
 [EA][EA] [EB]2 [Ec]4 | [Ec][Ec] [DB]2 [CA][CA] [CE]2 | [Ec][Ec] [DB]2 [CA]2 [CE]2 | %6
w: |||
 [DF][DF] [EG]2 [FA][FA] [Fd]2 | [Ec]2 [DB]2 [CA]4 | [EB]E E2 E2 E2 | [Ec][EA] [EA]2 [EA]2 [EA]2 | %10
w: ||||
 z4 c2 z2 | [Ge][GB] [GB]2 [GB]4 | [Ac][Ac] [EB]2 [EA]2 [CE]2 | [Ec][Ec] [DB]2 [CA]2 [CE]2 | %14
w: ||||
 [DF][DF] z2 [DG][DG] z2 | [Ec][Ec] [DB]2 [CA]4- | [CA]4 z4 |] %17
w: |||
V:2
 x8 | x8 | x8 | x8 | x8 | x8 | x8 | x8 | x8 | x8 | [Gd][Gd] [Gd]2 A2- [Ae]2 | x8 | x8 | x8 | x8 | %15
 x8 | x8 |] %17
V:3
 A,2 A,2 A,2 A,2 | A,A, A,2 A,2 A,2 | B,2[K:treble] C2 D2 B,2 | CC D2 E4 | A,A, A,2 A,A, A,2 | %5
 A,A, A,2 A,2 A,2 | A,A, A,2 A,A, A,2 | A,2 G,2 A,4 | G,G, G,2 G,2 G,2 | A,[K:treble]C C2 C2 C2 | %10
 B,[K:bass]B, B,2 A,2 C2 | B,[K:treble]E E2 E4 | EE D2 C2[K:bass] A,2 | A,A, A,2 A,2 A,2 | %14
 A,A, z2 E,E, z2 | A,A, G,2 A,4- | A,4 z4 |] %17
V:4
 A,,2 A,,2 A,,2 A,,2 | A,,A,, A,,2 A,,2 A,,2 | E,2 E,2 E,2 G,2 | A,A, A,2 A,4 | %4
 A,,A,, A,,2 A,,A,, A,,2 | A,,A,, A,,2 A,,2 A,,2 | D,D, D,2 D,D, D,2 | E,2 E,2 A,,4 | %8
 E,E, E,2 E,2 E,2 | z A, A,2 A,2 A,2 | E,E, E,2 z4 | E,E, E,2 E,4 | A,,A,, A,,2 A,,2 A,,2 | %13
 A,,A,, A,,2 A,,2 A,,2 | D,D, z2 z4 | E,E, E,2 A,,4- | A,,4 z4 |] %17

